16x16/apps/baldis-basics.svg

<svg width="16" height="16" version="1.1" xmlns="http://www.w3.org/2000/svg">
 <path d="m2.5 10c-0.8284271 0-1.5 0.671573-1.5 1.5 0.00184 0.626243 0 1.281994 0 1.916016v2.02539c0 0.309865 0.2487293 0.558594 0.5585938 0.558594h1.8828124c0.3098646 0 0.5585938-0.248729 0.5585938-0.558594-2.94e-5 -1.308792 0-2.639884 0-3.941406 0-0.828427-0.6715729-1.5-1.5-1.5zm11 0c-0.828427 0-1.5 0.671573-1.5 1.5 0.0018 0.626243 0 1.281994 0 1.916016v2.02539c0 0.309865 0.24873 0.558594 0.558594 0.558594h1.882812c0.309864 0 0.558594-0.248729 0.558594-0.558594-3e-5 -1.308792 0-2.639884 0-3.941406 0-0.828427-0.671573-1.5-1.5-1.5z" style="fill-opacity:.98974358;fill:#14d014"/>
 <path d="m8 0c-2.4 0-4 2.8-4 5.6 0 1.9229604 2.8 4.4 2.8 4.8 0 0.77746 0 2 1.2 2s1.2-1.22254 1.2-2c0-0.4 2.8-2.8770396 2.8-4.8 0-2.4-1.6-5.6-4-5.6z" style="fill:#d2b575"/>
 <path d="m4.4 10c-1.6 0-1.4 1.6-1.4 1.6v4c0 0.2216 0.1784 0.4 0.4 0.4h9.2c0.2216 0 0.392091-0.178541 0.4-0.4v-4s0.2-1.6-1.4-1.6c-1.359738 0-2.1 1-3.7 1s-2.1402616-1-3.5-1z" style="fill:#37e137"/>
 <path d="m10.618227 0.0038912s-0.185135-0.020108-0.464051 0.031148c-0.2789156 0.051256-0.6687632 0.1718028-1.1282048 0.4446404-0.4783404 0.2840612-0.9646972 0.7771476-0.9646972 0.7771476a0.1993439 0.19936836 0 1 0 0.2818572 0.2818912s0.4839564-0.47716 0.8868356-0.7164088c0.4189448-0.2487884 0.762042-0.352474 0.9966202-0.395582 0.234577-0.0431076 0.343366-0.027256 0.343366-0.027256a0.1993439 0.19936836 0 1 0 0.04827-0.395582z" style="fill:#684322"/>
 <path d="M 8,4 C 8,4 9,6.2222222 9,7.1111111 9,7.5301373 9,8 8,8 7,8 7,7.5301373 7,7.1111111 7,6.2222222 8,4 8,4 Z" style="fill:#e7cf9c"/>
 <path d="m8 8.1c-1.2 0-2-0.1-2-0.1s1.2 0.9 2 0.9 2-0.9 2-0.9-0.8 0.1-2 0.1z" style="fill:#e43a31"/>
 <circle cx="6" cy="4" r="1" style="fill-opacity:.98974358;fill:#f4f4f7"/>
 <circle cx="10" cy="4" r="1" style="fill-opacity:.98974358;fill:#f4f4f7"/>
</svg>

<svg width="16" height="16" xmlns="http://www.w3.org/2000/svg"><path d="M2.5 10A1.5 1.5 0 0 0 1 11.5c.002.626 0 1.282 0 1.916v2.025c0 .31.249.559.559.559H3.44c.31 0 .559-.249.559-.559V11.5A1.5 1.5 0 0 0 2.5 10zm11 0a1.5 1.5 0 0 0-1.5 1.5c.002.626 0 1.282 0 1.916v2.025c0 .31.249.559.559.559h1.882c.31 0 .559-.249.559-.559V11.5a1.5 1.5 0 0 0-1.5-1.5z" style="fill-opacity:.98974358;fill:#14d014"/><path d="M8 0C5.6 0 4 2.8 4 5.6c0 1.923 2.8 4.4 2.8 4.8 0 .777 0 2 1.2 2s1.2-1.223 1.2-2c0-.4 2.8-2.877 2.8-4.8C12 3.2 10.4 0 8 0z" style="fill:#d2b575"/><path d="M4.4 10C2.8 10 3 11.6 3 11.6v4a.4.4 0 0 0 .4.4h9.2a.404.404 0 0 0 .4-.4v-4s.2-1.6-1.4-1.6c-1.36 0-2.1 1-3.7 1s-2.14-1-3.5-1z" style="fill:#37e137"/><path d="M10.618.004s-.185-.02-.464.031A3.447 3.447 0 0 0 9.026.48c-.478.284-.965.777-.965.777a.2.2 0 1 0 .282.282s.484-.477.887-.717c.419-.248.762-.352.997-.395.234-.043.343-.028.343-.028a.2.2 0 1 0 .048-.395z" style="fill:#684322"/><path d="M8 4s1 2.222 1 3.111C9 7.531 9 8 8 8s-1-.47-1-.889C7 6.222 8 4 8 4z" style="fill:#e7cf9c"/><path d="M8 8.1C6.8 8.1 6 8 6 8s1.2.9 2 .9 2-.9 2-.9-.8.1-2 .1z" style="fill:#e43a31"/><circle cx="6" cy="4" r="1" style="fill-opacity:.98974358;fill:#f4f4f7"/><circle cx="10" cy="4" r="1" style="fill-opacity:.98974358;fill:#f4f4f7"/></svg>
